X:30
T:Carolan's Farewell to Music
T:Carolan's Farewell
T:Farewell to Music
R:carolan
C:Turlough O'Carolan (1670-1738)
H:Originally in Gdor
Z:id:hn-carolan-30
M:4/4
L:1/8
Q:1/4=50
K:Ador
E | A2AB c2 (3cBA | G>A B/d/e/f/ g>a b/a/g/e/ |
e>d B/d/e/f/ g>e e/d/B | e>d Bc Ac B/A/G/E/ |
A2AB c2 c/B/A | AA (3BAG a>g (3abc' | e2eg d2de | cB B/A/B/c/ A3 ||
e | a2ab agab | agab ac' b/a/g/e/ | g2ga gega |
bagb ac' b/a/g/e/ | a3g agab | (3abc' (3abc' bage |
gfga b/c'/a/b/ g/a/f/g/ | e/f/d/e/ c/d/B/c/ A>c B/A/G/E/ |
A2AB c2 c/B/A | B2 (3BAG a>g (3abc' | e2eg d2de | cB B/A/B/c/ A3 ||

